X: 745
T: Mengjun shang qianxian
L: 1/8
M: 2/4
K: F
G E D C [I:setbarnb 1]| 
c> d A c | 
f f/ d/ c/ d/ c/ A/ | 
G4 | 
A G/ A/c2 | 
f2d c | 
c A G/ A/ G/ D/ | 
C4 | 
D C/ D/ F F | 
G A c A | 
G A G C | 
D4 | 
f f d c | 
c F G d | 
c G/ A/ F D | 
C4 |]

@@@ Tune index: 9619
